public/themes/EC/images/spoon.svg

<?xml version="1.0" encoding="UTF-8"?>
<svg width="34px" height="34px" viewBox="0 0 34 34" version="1.1" xmlns="http://www.w3.org/2000/svg" xmlns:xlink="http://www.w3.org/1999/xlink">
    <!-- Generator: Sketch 61 (89581) - https://sketch.com -->
    <title>spoon</title>
    <desc>Created with Sketch.</desc>
    <g id="Page-1" stroke="none" stroke-width="1" fill="none" fill-rule="evenodd">
        <g id="spoon" fill="#383838" fill-rule="nonzero">
            <path d="M10.9589286,0.27322193 L12.1428571,10.9285764 C12.1428571,12.9404703 10.5118944,14.5714326 8.5,14.5714326 L7.40714286,14.5714326 L8.43928571,32.7249994 C8.45592846,33.0574326 8.33538068,33.3821238 8.1058292,33.6231528 C7.87627772,33.8641818 7.55784938,34.0004154 7.225,34.0000038 L4.91785714,34.0000038 C4.58500776,34.0004154 4.26657942,33.8641818 4.03702794,33.6231528 C3.80747647,33.3821238 3.68692869,33.0574326 3.70357143,32.7249994 L4.73571429,14.5714326 L3.64285714,14.5714326 C1.6309627,14.5714326 0,12.9404703 0,10.9285764 L1.18392857,0.27322193 C1.19957524,0.117519792 1.33101559,-0.000776485932 1.4875,3.83804882e-06 L2.125,3.83804882e-06 C2.29265787,3.83804882e-06 2.42857143,0.135921238 2.42857143,0.303579065 L2.42857143,6.07143474 C2.42857143,6.74206605 2.97222566,7.28572014 3.64285714,7.28572014 L5.1,7.28572014 L5.46428571,0.303579065 C5.46428571,0.135921238 5.60019927,3.83804882e-06 5.76785714,3.83804882e-06 L6.375,3.83804882e-06 C6.54265787,3.83804882e-06 6.67857143,0.135921238 6.67857143,0.303579065 L7.04285714,7.28572014 L8.5,7.28572014 C9.17063148,7.28572014 9.71428571,6.74206605 9.71428571,6.07143474 L9.71428571,0.303579065 C9.71428571,0.135921238 9.85019927,3.83804882e-06 10.0178571,3.83804882e-06 L10.6553571,3.83804882e-06 C10.8118416,-0.000776485932 10.9432819,0.117519792 10.9589286,0.27322193 Z M15.7857143,4.85714933 L15.7857143,19.4285742 L18.2142857,19.4285742 L17.0607143,32.7249994 C17.0440715,33.0574326 17.1646193,33.3821238 17.3941708,33.6231528 C17.6237223,33.8641818 17.9421506,34.0004154 18.275,34.0000077 L20.5821429,34.0000077 C20.9149922,34.0004154 21.2334206,33.8641818 21.4629721,33.6231528 C21.6925235,33.3821238 21.8130713,33.0574326 21.7964286,32.7249994 L21.8571429,7.71421063e-06 L20.6428571,7.71421063e-06 C17.9603312,7.71421063e-06 15.7857143,2.17462409 15.7857143,4.85714933 Z M34,7.28572014 C34,3.24822117 31.8142857,7.71421063e-06 29.1428571,7.71421063e-06 C26.4714286,7.71421063e-06 24.2857143,3.27857831 24.2857143,7.28572014 C24.2857143,10.625005 25.8035714,13.4178614 27.8071429,14.2678612 L26.775,32.7249994 C26.7583573,33.0574326 26.878905,33.3821238 27.1084565,33.6231528 C27.338008,33.8641818 27.6564363,34.0004154 27.9892857,34.0000077 L30.2964286,34.0000077 C30.629278,34.0004154 30.9477063,33.8641818 31.1772578,33.6231528 C31.4068092,33.3821238 31.527357,33.0574326 31.5107143,32.7249994 L30.4785714,14.2678612 C32.5125,13.4178614 34,10.625005 34,7.28572014 Z" id="Shape"></path>
        </g>
    </g>
</svg>

<svg width="34" height="34" viewBox="0 0 34 34" xmlns="http://www.w3.org/2000/svg"><title>spoon</title><path d="M10.959.273l1.184 10.656A3.643 3.643 0 0 1 8.5 14.57H7.407L8.44 32.725A1.214 1.214 0 0 1 7.225 34H4.918a1.214 1.214 0 0 1-1.214-1.275l1.032-18.154H3.643A3.643 3.643 0 0 1 0 10.93L1.184.273A.304.304 0 0 1 1.488 0h.637c.168 0 .304.136.304.304V6.07c0 .671.543 1.215 1.214 1.215H5.1L5.464.304C5.464.136 5.6 0 5.768 0h.607c.168 0 .304.136.304.304l.364 6.982H8.5c.67 0 1.214-.544 1.214-1.215V.304c0-.168.136-.304.304-.304h.637c.157 0 .288.118.304.273zm4.827 4.584V19.43h2.428l-1.153 13.296A1.214 1.214 0 0 0 18.275 34h2.307a1.214 1.214 0 0 0 1.214-1.275L21.857 0h-1.214a4.857 4.857 0 0 0-4.857 4.857zM34 7.286C34 3.248 31.814 0 29.143 0c-2.672 0-4.857 3.279-4.857 7.286 0 3.339 1.518 6.132 3.521 6.982l-1.032 18.457A1.214 1.214 0 0 0 27.989 34h2.307a1.214 1.214 0 0 0 1.215-1.275l-1.032-18.457C32.513 13.418 34 10.625 34 7.286z" fill="#383838"/></svg>
